X:222
M:C|
L:1/8
K:F
g|f/g/a fc d2 df|cfAf cfAf|a/g/f/e/ fc d2 df|cAfd cAGg|f/g/a fc d2 df|
cfAf cfAf|a/g/f/e/ fc defd|cAfd cAGA||

